X:33
T: SCHLAF KINDCHEN ALSO WOHL
N: K0122
O: Europa, Mitteleuropa, Deutschland, Niederrhein
R: Kinder -, Wiegen - Lied
M: 2/4
L: 1/16
K: F
 | A4G2G2 | F2F2C4
A2A2G2G2 | F2F2C4
F2A2A2c2 | c4B2
A2 | G2G2G2B2 | B4A4
F2A2A2c2 | c2B2B2
A2 | G2G2G2B2 | AAG2F4

